X:445
T:The Unclouded Day
C: arranged by Lee Marcus
N:Transcribed by Lee Marcus
R:bluegrass
L:1/8
Q:1/4=230
M:4/4
K:G
z2 {B,}DD D2 E2 | FG GG GG EG | GG GB AG FG | DE EG FE DE | D2 B,/D/D DD ED | 
F/G/G GG GG EG | GG DE GB {c}d2 | D2 d2 d2 {^c}d2 | d2 fe de fe | fg gg ge dc | 
BA GD =F^F GD | ED EG =FE DB, | D2 F/G/G GB c2 | [f^c][gd] [gd][gd] [g2d2] ge | 
dd c^A/B/ G2 =FE | DF Ad c^A/B/ GE | G2 [G2G,2] ED ^A,B, | G,8 | 


